.local/share/icons/Gruvbox-Plus-Dark/actions/16/labplot-shift-right-x.svg

<svg xmlns="http://www.w3.org/2000/svg" width="16" height="16" viewBox="0 0 16 16">
 <defs>
  <style id="current-color-scheme" type="text/css">
   .ColorScheme-Text { color:#ebdbb2; } .ColorScheme-Highlight { color:#458588; }
  </style>
 </defs>
 <path style="fill:currentColor" class="ColorScheme-Text" d="M 11 0 L 9 4 L 13 4 L 11 0 z M 7 6 L 3 8 L 7 10 L 7 6 z M 11 7 C 10.446 7 10 7.446 10 8 C 10 8.554 10.446 9 11 9 C 11.554 9 12 8.554 12 8 C 12 7.446 11.554 7 11 7 z M 9 12 L 11 16 L 13 12 L 9 12 z"/>
</svg>

<svg width="16" height="16" version="1.1" xmlns="http://www.w3.org/2000/svg">
  <defs>
    <style id="current-color-scheme" type="text/css">.ColorScheme-Text { color:#ebdbb2; } .ColorScheme-Highlight { color:#458588; }</style>
  </defs>
  <path class="ColorScheme-Text" d="m11 0-2 4h4l-2-4zm-4 6-4 2 4 2v-4zm4 0a2 2 0 0 0-2 2 2 2 0 0 0 2 2 2 2 0 0 0 2-2 2 2 0 0 0-2-2zm-2 6 2 4 2-4h-4z" fill="currentColor"/>
</svg>
